X:1
T:Title
%%score { ( 1 4 ) | ( 2 3 ) }
L:1/8
M:6/4
K:F
V:1 treble nm="Grand Piano"
V:4 treble 
V:2 bass 
V:3 bass 
V:1
 z12[Q:1/4=114] | [CA]2 A2 A2 [DA]2 A2 _A2 | [CA]2 A2 A2 [CAc]4 [FB]2 | %3
 [CFA]2 [FA]2 [FA]2 [CFA]2 [FB]2 [FA]2 | [CEG]6- [CEG]4 [CFA]2 | %5
 [B,GB]2 [DGB]2 [_EGB]2 [=EGB]2 [Bc]2 [Bd]2 |[M:5/4] [FAc]2 c2 c2 A4 |[M:1/4] AA | %8
[M:6/4] F .F3 F2 A2 A2 G2 | F12 | [EG]2 [EG]2 [FA]2 [GB]2 [EG]4 | [FA]2 [FA]2 [GB]2 [Ac]2 [FA]4 | %12
 [FB]2 [Fc]2 [Fd]2 c2 B2 A2 | G12 | z6 .B6 | c2 c2 c2 .[Dd]4 [DF]2 | %16
[M:13/8] [CFA]- [CFA]3 [CFA]2 [CEA]2 [CEA]3 [B,EG]2 |[M:5/4] F2- F2- F6 |] %18
V:2
 z6 z4 F2 | z2[K:treble] F2 E2[K:bass] z2 C2 =B,2 | z2[K:treble] F2 D2[K:bass] F,,4 D2 | %3
 z2 C2 C2 z2 D2 C2 | C,2 E,2 G,2 C,4 A,,2 | G,,2 D,2 ^C,2 z2 E2 E2 | %6
[M:5/4] z2[K:treble] [FA]2 [FA]2[K:bass] [F,CF]4 |[M:1/4] A,2- | %8
[M:6/4] [D,-A,D-]2 [D,D]2 [D,G,=B,]2 C,2- [C,-CF]2 [C,CE]2 | [F,A,]12 | %10
 [C,C]2 [C,C]2 [C,C]2 [C,C]2 [C,C]4 | [F,C]2 [F,C]2 [F,C]2 [F,C]2 [F,C]4 | %12
 [D,B,]2 [C,A,]2 [B,,B,]2[K:treble] [F,A,F]2 [F,DF]2 [F,CF]2 | %13
 [G,CF]2 [G,C]2[K:bass] [G,=B,]2 [C,C]4 [C,C][C,C] | %14
 [F,CF]2[K:treble] [F,CF]2 [F,CF]2 .[G,CF]4[K:bass] [G,CE]2 | %15
 [F,A,_E]2 [F,A,E]2 [F,A,E]2 z2 .F3 G |[M:13/8] C,- C,3 C,2 C,2 C,3 C,2 |[M:5/4] z2 A,2 B,2 A,4 |] %18
V:3
 x12 | F,,6[K:treble][K:bass] F,,6 | F,,6[K:treble][K:bass] z6 | F,,6 F,,6 | x12 | z6 =C,6 | %6
[M:5/4] F,,6[K:treble][K:bass] z4 |[M:1/4] [F,C]2 |[M:6/4] z6 .[F,C]6 | x12 | x12 | x12 | %12
 x6[K:treble] x6 | x4[K:bass] x8 | x2[K:treble] x8[K:bass] x2 | z6 [B,,B,]4 B,,2 |[M:13/8] x13 | %17
[M:5/4] F,2- F,2- F,6 |] %18
V:4
 x12 | x12 | x12 | x12 | x12 | x12 |[M:5/4] x10 |[M:1/4] x2 |[M:6/4] x12 | x12 | x12 | x12 | x12 | %13
 z2 D2 F2 E4 [EG][EG] | A2 A2 A2 z2 E2 B2 | x12 |[M:13/8] x13 |[M:5/4] A,2 C2 D2 C4 |] %18

